svg/m/AF.svg

<svg width="20" height="15" viewBox="0 0 20 15" fill="none" xmlns="http://www.w3.org/2000/svg">
<mask id="mask0" mask-type="alpha" maskUnits="userSpaceOnUse" x="0" y="0" width="20" height="15">
<rect width="20" height="15" fill="white"/>
</mask>
<g mask="url(#mask0)">
<path fill-rule="evenodd" clip-rule="evenodd" d="M14 0H20V15H14V0Z" fill="#67BD38"/>
<path fill-rule="evenodd" clip-rule="evenodd" d="M6 0H14V15H6V0Z" fill="#D51700"/>
<path fill-rule="evenodd" clip-rule="evenodd" d="M0 0H6V15H0V0Z" fill="#272727"/>
<path fill-rule="evenodd" clip-rule="evenodd" d="M7.70481 4.98553L7.92106 5.12125C7.56068 5.72781 7.3186 6.28362 7.19342 6.78885C7.24639 6.83771 7.27958 6.88052 7.31349 6.93924C7.41126 7.10859 7.4935 7.27299 7.56014 7.4325L7.27273 7.55487C7.22762 7.44688 7.17446 7.33584 7.11323 7.22179C7.08395 7.46826 7.08596 7.70115 7.11907 7.92048C7.17163 7.92588 7.21577 7.93693 7.26682 7.95551C7.45058 8.02239 7.61925 8.09547 7.77283 8.17482L7.63132 8.4533C7.50038 8.38565 7.35657 8.32249 7.19988 8.2639L7.20298 8.27335C7.33658 8.67707 7.54101 9.04849 7.81688 9.3878C7.85999 9.37852 7.90016 9.375 7.9471 9.375C8.14266 9.375 8.32615 9.38598 8.49761 9.40802L8.45988 9.71811C8.34316 9.7031 8.21972 9.6936 8.08955 9.68963C8.33746 9.93769 8.62847 10.1665 8.96285 10.376L8.83094 10.5984C8.41627 10.3385 8.06336 10.0487 7.77264 9.72928C7.73475 9.7441 7.68861 9.76371 7.62989 9.78937L7.60781 9.79894C7.86158 10.065 8.16159 10.3097 8.50814 10.5331L8.37349 10.7537C7.97302 10.4955 7.63021 10.2087 7.34544 9.8935C7.20951 9.9284 7.09489 9.92765 6.96079 9.88831L7.04425 9.58782C7.06442 9.59373 7.08414 9.59811 7.10395 9.60092C6.83953 9.24904 6.64029 8.86532 6.50667 8.44994C6.48308 8.37658 6.46286 8.30189 6.44603 8.22587C6.34246 8.20612 6.2551 8.16725 6.16443 8.10052L6.34563 7.84669C6.36128 7.85821 6.37702 7.86837 6.39326 7.87727C6.3608 7.49446 6.40554 7.08123 6.52682 6.63762C6.45087 6.55019 6.40441 6.45958 6.37579 6.34172L6.64126 6.27318C6.78434 5.86797 6.9867 5.43921 7.24791 4.98693L7.4658 5.11986C7.18097 5.61304 6.96993 6.07377 6.83205 6.50211C6.87069 6.53718 6.91797 6.57475 6.97586 6.61769C7.11432 6.11389 7.35767 5.5698 7.70481 4.98553ZM6.89883 6.94905C6.87076 6.92719 6.83703 6.90193 6.79602 6.87171C6.77633 6.8572 6.75748 6.84306 6.73943 6.82921C6.64291 7.22663 6.61446 7.59385 6.65347 7.93093C6.7 7.9313 6.75272 7.9293 6.81356 7.92546L6.86311 7.92245C6.82179 7.61832 6.83383 7.29384 6.89883 6.94905ZM6.82701 8.23639C6.86411 8.23405 6.89654 8.23218 6.92518 8.23083C6.93666 8.2734 6.9493 8.31552 6.9631 8.3572C7.09716 8.76234 7.29715 9.13644 7.56259 9.47936L7.5109 9.50179C7.46656 9.52117 7.42663 9.53772 7.39012 9.5515C7.09966 9.19258 6.88557 8.79823 6.74725 8.3682C6.73387 8.32663 6.72171 8.28451 6.71076 8.24186C6.74725 8.24086 6.78589 8.23899 6.82701 8.23639Z" fill="#F7FCFF"/>
<path fill-rule="evenodd" clip-rule="evenodd" d="M12.0869 4.98553L11.8706 5.12125C12.231 5.72781 12.4731 6.28362 12.5983 6.78885C12.5453 6.83771 12.5121 6.88052 12.4782 6.93924C12.3804 7.10859 12.2982 7.27299 12.2315 7.4325L12.519 7.55487C12.5641 7.44688 12.6172 7.33584 12.6785 7.22179C12.7077 7.46826 12.7057 7.70115 12.6726 7.92048C12.6201 7.92588 12.5759 7.93693 12.5249 7.95551C12.3411 8.02239 12.1724 8.09547 12.0189 8.17482L12.1604 8.4533C12.2913 8.38565 12.4351 8.32249 12.5918 8.2639L12.5887 8.27335C12.4551 8.67707 12.2507 9.04849 11.9748 9.3878C11.9317 9.37852 11.8915 9.375 11.8446 9.375C11.649 9.375 11.4655 9.38598 11.2941 9.40802L11.3318 9.71811C11.4485 9.7031 11.572 9.6936 11.7021 9.68963C11.4542 9.93769 11.1632 10.1665 10.8288 10.376L10.9607 10.5984C11.3754 10.3385 11.7283 10.0487 12.019 9.72928C12.0569 9.7441 12.1031 9.76371 12.1618 9.78937L12.1839 9.79894C11.9301 10.065 11.6301 10.3097 11.2836 10.5331L11.4182 10.7537C11.8187 10.4955 12.1615 10.2087 12.4462 9.8935C12.5822 9.9284 12.6968 9.92765 12.8309 9.88831L12.7474 9.58782C12.7273 9.59373 12.7075 9.59811 12.6877 9.60092C12.9522 9.24904 13.1514 8.86532 13.285 8.44994C13.3086 8.37658 13.3288 8.30189 13.3457 8.22587C13.4492 8.20612 13.5366 8.16725 13.6273 8.10052L13.4461 7.84669C13.4304 7.85821 13.4147 7.86837 13.3984 7.87727C13.4309 7.49446 13.3862 7.08123 13.2649 6.63762C13.3408 6.55019 13.3873 6.45958 13.4159 6.34172L13.1504 6.27318C13.0073 5.86797 12.805 5.43921 12.5438 4.98693L12.3259 5.11986C12.6107 5.61304 12.8218 6.07377 12.9596 6.50211C12.921 6.53718 12.8737 6.57475 12.8158 6.61769C12.6774 6.11389 12.434 5.5698 12.0869 4.98553ZM12.8929 6.94905C12.9209 6.92719 12.9547 6.90193 12.9957 6.87171C13.0154 6.8572 13.0342 6.84306 13.0523 6.82921C13.1488 7.22663 13.1772 7.59385 13.1382 7.93093C13.0917 7.9313 13.039 7.9293 12.9781 7.92546L12.9286 7.92245C12.9699 7.61832 12.9579 7.29384 12.8929 6.94905ZM12.9647 8.23639C12.9276 8.23405 12.8951 8.23218 12.8665 8.23083C12.855 8.2734 12.8424 8.31552 12.8286 8.3572C12.6945 8.76234 12.4945 9.13644 12.2291 9.47936L12.2808 9.50179C12.3251 9.52117 12.3651 9.53772 12.4016 9.5515C12.692 9.19258 12.9061 8.79823 13.0444 8.3682C13.0578 8.32663 13.07 8.28451 13.0809 8.24186C13.0444 8.24086 13.0058 8.23899 12.9647 8.23639Z" fill="#F7FCFF"/>
<path fill-rule="evenodd" clip-rule="evenodd" d="M8.80811 10.165L8.11041 10.8554C8.11041 10.8554 8.71207 11.2239 9.846 11.2239C10.9799 11.2239 11.6402 10.8554 11.6402 10.8554L11.1099 10.165C11.1099 10.165 10.3872 10.4451 9.87532 10.4451C9.36347 10.4451 8.80811 10.165 8.80811 10.165Z" fill="#F7FCFF"/>
<path d="M8.82269 10.6056C8.82269 10.6056 9.41339 10.745 9.86622 10.745C10.319 10.745 10.9097 10.6056 10.9097 10.6056" stroke="#C00001" stroke-width="0.5"/>
<path fill-rule="evenodd" clip-rule="evenodd" d="M10.4574 5.91142C10.4574 6.18468 10.2079 6.40621 9.90001 6.40621C9.59215 6.40621 9.34258 6.18468 9.34258 5.91142C9.34258 5.63815 9.59215 5.41663 9.90001 5.41663C10.2079 5.41663 10.4574 5.63815 10.4574 5.91142ZM9.90001 6.40621H9.29989L9.1346 6.5329H9.10238V5.54246H8.79833V6.5329H8.53177V6.70182H8.79833V8.48783C8.76227 8.77312 8.67894 8.93444 8.56214 8.99048L7.94141 9.28831H11.6773L11.4088 9.02003C11.173 8.78441 11.0603 8.60321 11.0603 8.49774V6.70182H11.1669V6.5329H11.0603V5.54246H10.7562V6.5329H10.658L10.462 6.40621H9.90001ZM9.10238 6.70182H10.7562V8.49774C10.7562 8.64258 10.8247 8.79975 10.9585 8.97581H8.97697C9.03817 8.85262 9.07909 8.69905 9.10238 8.50746V6.70182ZM9.95069 7.49996H9.2919V8.80204H10.6095L9.95069 7.49996Z" fill="#F7FCFF"/>
<path fill-rule="evenodd" clip-rule="evenodd" d="M10.631 3.8476L10.6322 3.84949L10.6319 3.84877L10.631 3.8476ZM11.5943 4.18611L11.5948 4.19191L11.5945 4.18769L11.5943 4.18611ZM11.7813 4.20917L11.7823 4.20631L11.7818 4.20772L11.7813 4.20917ZM11.024 4.59271L11.0276 4.59268L11.0258 4.5929L11.024 4.59271Z" fill="#F7FCFF"/>
<path fill-rule="evenodd" clip-rule="evenodd" d="M8.02053 6.66754L7.896 6.75716L8.02439 6.94563C7.91439 6.98509 7.73754 7.08507 7.73754 7.31998C7.73754 7.66094 7.6178 7.94026 7.6178 7.94026L7.97544 8.16994C7.97544 8.16994 8.01274 7.77229 8.11008 7.54614C8.15889 7.43275 8.23488 7.37621 8.29853 7.34802L8.85446 8.16405L8.979 8.07443L8.02053 6.66754Z" fill="#F7FCFF"/>
<path fill-rule="evenodd" clip-rule="evenodd" d="M11.8195 6.66754L11.944 6.75716L11.8156 6.94563C11.9256 6.98509 12.1025 7.08507 12.1025 7.31998C12.1025 7.66094 12.2222 7.94026 12.2222 7.94026L11.8646 8.16994C11.8646 8.16994 11.8273 7.77229 11.7299 7.54614C11.6811 7.43275 11.6051 7.37621 11.5415 7.34802L10.9856 8.16405L10.861 8.07443L11.8195 6.66754Z" fill="#F7FCFF"/>
</g>
</svg>

<svg width="20" height="15" fill="none" xmlns="http://www.w3.org/2000/svg">
  <mask id="a" maskUnits="userSpaceOnUse" x="0" y="0" width="20" height="15">
    <path fill="#fff" d="M0 0h20v15H0z"/>
  </mask>
  <g mask="url(#a)">
    <path fill-rule="evenodd" clip-rule="evenodd" d="M14 0h6v15h-6V0z" fill="#67BD38"/>
    <path fill-rule="evenodd" clip-rule="evenodd" d="M6 0h8v15H6V0z" fill="#D51700"/>
    <path fill-rule="evenodd" clip-rule="evenodd" d="M0 0h6v15H0V0z" fill="#272727"/>
    <path fill-rule="evenodd" clip-rule="evenodd" d="M7.705 4.986l.216.135c-.36.607-.602 1.163-.728 1.668a.59.59 0 01.12.15c.098.17.18.334.247.494l-.287.122a3.813 3.813 0 00-.16-.333c-.029.246-.027.48.006.698a.586.586 0 01.148.036c.184.066.352.14.506.219l-.142.278a3.968 3.968 0 00-.431-.19l.003.01c.134.404.338.775.614 1.115a.595.595 0 01.13-.013c.196 0 .38.011.55.033l-.037.31a3.82 3.82 0 00-.37-.028c.247.248.538.476.873.686l-.132.222a5.033 5.033 0 01-1.058-.869 4.134 4.134 0 00-.143.06l-.022.01c.254.266.554.51.9.734l-.134.22a5.095 5.095 0 01-1.029-.86.678.678 0 01-.384-.005l.083-.3c.02.006.04.01.06.013a3.883 3.883 0 01-.597-1.151 2.486 2.486 0 01-.061-.224.666.666 0 01-.282-.125l.182-.254a.424.424 0 00.047.03 3.56 3.56 0 01.134-1.24.667.667 0 01-.151-.295l.265-.069c.143-.405.346-.834.607-1.286l.218.133a7.228 7.228 0 00-.634 1.382c.039.035.086.073.144.116.138-.504.382-1.048.729-1.632zm-.806 1.963a4.984 4.984 0 00-.16-.12 3.138 3.138 0 00-.086 1.102c.047 0 .1-.002.16-.006l.05-.003A3.035 3.035 0 016.9 6.95zm-.072 1.287l.098-.005c.012.042.024.085.038.126.134.405.334.78.6 1.122l-.052.023c-.044.02-.084.036-.12.05a3.637 3.637 0 01-.68-1.31l.116-.006zm5.26-3.25l-.216.135c.36.607.602 1.163.727 1.668a.59.59 0 00-.12.15 4.33 4.33 0 00-.246.494l.287.122a3.79 3.79 0 01.16-.333c.029.246.027.48-.006.698a.586.586 0 00-.148.036 4.18 4.18 0 00-.506.219l.141.278c.131-.067.275-.13.432-.19l-.003.01a3.494 3.494 0 01-.614 1.115.595.595 0 00-.13-.013c-.196 0-.38.011-.55.033l.037.31a3.82 3.82 0 01.37-.028 4.92 4.92 0 01-.873.686l.132.222c.414-.26.767-.55 1.058-.869l.143.06.022.01a4.97 4.97 0 01-.9.734l.134.22c.4-.258.744-.544 1.028-.86.136.035.25.035.385-.005l-.084-.3a.42.42 0 01-.06.013c.265-.352.464-.736.598-1.151a2.51 2.51 0 00.06-.224.667.667 0 00.282-.125l-.18-.254a.423.423 0 01-.049.03 3.56 3.56 0 00-.133-1.24.668.668 0 00.15-.295l-.265-.069a7.762 7.762 0 00-.606-1.286l-.218.133c.285.493.496.954.634 1.382a1.893 1.893 0 01-.144.116c-.139-.504-.382-1.048-.73-1.632zm.806 1.963a4.821 4.821 0 01.16-.12c.096.398.124.765.085 1.102-.046 0-.099-.002-.16-.006l-.05-.003c.042-.304.03-.628-.035-.973zm.072 1.287a6.322 6.322 0 00-.098-.005 3.745 3.745 0 01-.637 1.249l.05.022c.045.02.085.036.122.05a3.638 3.638 0 00.679-1.31 3.261 3.261 0 01-.116-.006z" fill="#F7FCFF"/>
    <path fill-rule="evenodd" clip-rule="evenodd" d="M8.808 10.165l-.698.69s.602.369 1.736.369 1.794-.369 1.794-.369l-.53-.69s-.723.28-1.235.28c-.511 0-1.067-.28-1.067-.28z" fill="#F7FCFF"/>
    <path d="M8.823 10.606s.59.139 1.043.139c.453 0 1.044-.14 1.044-.14" stroke="#C00001" stroke-width=".5"/>
    <path fill-rule="evenodd" clip-rule="evenodd" d="M10.457 5.911c0 .274-.25.495-.557.495-.308 0-.557-.221-.557-.495 0-.273.25-.494.557-.494.308 0 .557.221.557.494zm-.557.495h-.6l-.165.127h-.033v-.99h-.304v.99h-.266v.169h.266v1.786c-.036.285-.12.446-.236.502l-.62.298h3.735l-.268-.268c-.236-.236-.349-.417-.349-.522V6.702h.107v-.17h-.107v-.99h-.304v.99h-.098l-.196-.126H9.9zm-.798.296h1.654v1.796c0 .145.069.302.202.478H8.977a1.44 1.44 0 00.125-.469V6.702zm.849.798h-.66v1.302h1.319L9.95 7.5zm.68-3.652l.001.001-.001-.001zm.963.338v.006-.006zm.187.023l.001-.003v.003zm-.757.384h.004-.004z" fill="#F7FCFF"/>
    <path fill-rule="evenodd" clip-rule="evenodd" d="M8.02 6.668l-.124.09.128.188c-.11.04-.286.14-.286.374 0 .34-.12.62-.12.62l.357.23s.038-.398.135-.624a.365.365 0 01.189-.198l.555.816.125-.09-.958-1.406zm3.8 0l.124.09-.128.188c.11.04.286.14.286.374 0 .34.12.62.12.62l-.357.23s-.038-.398-.135-.624a.365.365 0 00-.189-.198l-.555.816-.125-.09.958-1.406z" fill="#F7FCFF"/>
  </g>
</svg>
